X: 7
T:Fly Around My Pretty Little Miss
C:Traditional
R:Reel
M:4/4
L:1/8
S:https://tunearch.org//wiki/Fly_Around_My_Pretty_Little_Miss
K:D
"D"f2e2d2B2|dedB A2z2|
w:Fly a-round my pre-tty lit-tle miss
A2A2 B2d2|[d3f3]e [d2f2]z2|
w:Fly a-round my dai - sy
"D"[d2f2]e2d2B2|dedB A2z2|
w:Fly a-round my pre-tty lit-tle miss
"A"A2A2 B2c2|"D"[d3f3][d4f4] z:|
w:You almost drive me cra-zy
|:"D"a2a2f2a2|"G"b3a b2a2-|
w:I wish I was in Ar-kan-sas
"D"a2a2 agf2|"A"e4 e2fg|
w:_Sit-ting in my old armchair
"D"a2a2f2a2|"G"b3a b2 a2-|
w:With one arm ‘round my old gui-tar
"A"a2 aa gf e2|"D"[d3f3][de][d4f4]:|
w:_And the ot-her ‘round my _dear
W:Coffee grows on white oak trees
W:The river flows with brandy
W:If I had my pretty little miss
W:I’d feed her sugar candy
W:
W:The higher up the cherry tree
W:The riper grow the cherries
W:The more you hug and kiss the girls
W:The sooner they will marry
W:
W:Going to get some weevily wheat
W:Going to get some barley
W:Going to get some weevily wheat
W:To bake a cake for Charlie

